T255L8O5
ARO6CO5AERAECRECO4A2EAO5CO4ABABAG+BO5DO4BO5CRO4A4
O5ARO6CO5AERAECRECO4A2O5CC-CRCC-CRARCRC16D16C8O4B4
O5EE-EREE-ERO6CRO5ERE16F16E8D+4O4BO5EGEF+EF+ED+F+AF+GF+GF+EGED+
EAED+EBED+EO6CO5ED+EO6CO5BABGF+EGRF+16G16F+8E2
ARO6CO5AERAECRECO4A2EAO5CO4ABABAG+BO5DO4BO5CRO4A4
O5ARO6CO5AERAECRECO4A2O5CC-CRCC-CRARCRC16D16C8O4B4
O5EE-EREE-ERO6CRO5ERE16F16E8D+4O4BO5EGEF+EF+ED+F+AF+GF+GF+EGED+
EAED+EBED+EO6CO5ED+EO6CO5BABGF+EGRF+16G16F+8E2
X0ERGEO4BRO5EO4BGRBGE2B-4A4O5D4C+EG4FEF4D4FRAFDRFDO4BRO5DO4BG2G
O5CECDCDCO4BO5DFDEDEDCECO4BO5CFCO4BO5CGCO4BO5CACO4BO5CAGF
GEDCERD16E16DC4R4EDEREDEREO6CO5ERE16F16E8DRDC+DRDC+DRDBDR
D16E16D8C4A4O6CO5AF3A16G16F16E16D3F16E16D16C16O4B-O5DFDO4B-AB-A
G+4E4F16G+16F8E4A4G+BO5D4CO4BO5C4O4A16B16O5C16D16E4CE
A4E4DCO4BO5CO4A2.R4
O5B-4R8C+4B-AGF32G32F16EF4.FEDC+EGB-AO6C+EGF2F8E32F32E16DC
O5BO6AGFEDCO5BO6CO5GEGCO6CDCO5BO6D+F+BBAG+F+G+ED+EAED+E
BED+EAED+EG+4R4O5AG+ABO6CO5BAG+AFEDCAG+AO4BO5G+F+G+A4R4
ERGEO4BRO5EO4BGRBGE2B-4A4O5D4C+EG4FEF4D4FRAFDRFDO4BRO5DO4BG2G
O5CECDCDCO4BO5DFDEDEDCECO4BO5CFCO4BO5CGCO4BO5CACO4BO5CAGF
GEDCERD16E16DC4R4EDEREDEREO6CO5ERE16F16E8DRDC+DRDC+DRDBDR
D16E16D8C4A4O6CO5AF3A16G16F16E16D3F16E16D16C16O4B-O5DFDO4B-AB-A
G+4E4F16G+16F8E4A4G+BO5D4CO4BO5C4O4A16B16O5C16D16E4CE
A4E4DCO4BO5C.R16C16O4B4R8.A1
