T115O3L4GFB-O4C8F8DC8F8DO3B-B+GF
O4L4GFB-O5C8F8DC8F8DO4B-B+GF
O3FGDF8G8CG8A8FO5FDC8O4B-8F
O3FGDF8G8E-B-8B+8G+O5A-FE-8C+8O4A-
O3A-B-A-L8B-O4CE-O3B-A-4O4D-E-FA-G-FE-G-FD-E-4
O3L4A-B-A-L8B-O4CE-O3B-L4O4CDCL8DFGDC4
FGAB+B-AGB-AFG4AEF4A4D4O3A4D4
FCD4F4D4O4FCD4C4O3A4B-4O5C4O4A4B-O5D
C4O4A4O5C4F4E-DCO4B-O5C4D4F4GB-F4G4
F4E-DCO4B-O5C4D4F4
GB-F4G4F4O3G4F4O5GB-F4G4F4
T240L32RP8[O4GO4E-]RP8[O4FO4C]RP8[O4B-O4D]
RP4[O5CO4F]RP4[O5FO4F]RP8[O5DO3B-]RP4[O5CO3A]RP4[O5FO3A]
RP8[O5DO3G]RP8[O4B-O3G]RP8[O5CO4E]
RP8[O4GO5E]RP8[O4FO5F]RP8[O5GO3B-]
RP8[O5FO3A]RP8[O5B-O3G]RP4[O6CO3F]RP4[O6FO3F]
RP8[O6DO3B-]RP9[O5B-O3G]RP10[O6E-O3C]R32
RP12[O6CO3F]R16RP30[O5B-O3B-]
